Carto/POI/SVG/business_solid_24px.svg

<svg xmlns="http://www.w3.org/2000/svg" width="24" height="24" viewBox="0 0 24 24"><rect width="24" height="24" style="fill:none"/><path d="M2,7H6v3H4v3H6v3H4v3H6v3H2ZM22,4V22H16V17H14v5H8V4ZM12,17H10v3h2Zm0-5H10v3h2Zm0-5H10v3h2Zm4,5H14v3h2Zm0-5H14v3h2Zm4,10H18v3h2Zm0-5H18v3h2Zm0-5H18v3h2Z"/></svg>

<svg width="24" height="24" viewBox="0 0 24 24" fill="none" xmlns="http://www.w3.org/2000/svg">
<path d="M2 7H6V10H4V13H6V16H4V19H6V22H2V7ZM22 4V22H16V17H14V22H8V4H22ZM12 17H10V20H12V17ZM12 12H10V15H12V12ZM12 7H10V10H12V7ZM16 12H14V15H16V12ZM16 7H14V10H16V7ZM20 17H18V20H20V17ZM20 12H18V15H20V12ZM20 7H18V10H20V7Z" fill="#0F1621"/>
</svg>
